X: 2131
T: Atlantic Wave, The
R: reel
M: 4/4
K: Gmajor
(3DEF|G3B d2dB|cBcd efge|d2BG DGBG|FDAD BDAF|
G3B d2dB|cBcd efge|dgfg ecAF|GcAF G2:|
|:(3Bcd|[g3d3]d ed^ce|dfab adfa|bagf gdBG|FDAD BDAF|
G3B d2dB|cBcd efge|dgfg ecAF|GcAF G2:|

